X:7
%%scale .6
T: Caisle�n na nOg/ Bobby Casey's/ Her Long Black Hair
C:First and last tunes are a Set from David Kidron
R: hornpipe
M: 4/4
L: 1/8
K: Gdor
|: GF | DGGF G2 (3A=Bc | dcde f2ga | gedc AdcA | DGGE FEDC |
DGGF G2 (3A=Bc | dcde f2ga | gfdc AdcA | G2GF G2 :|
|: (3A=Bc | dgga _b2 ag | gfde f2ga | gfdc AdcA | DGGE FEDC |
DGGF G2 (3A=Bc | dcde f2ga | gfdc AdcA | G2GF G2 :|
T:Bobby Casey's
K:Am
ed|cAAB c2cd|eaag e2dB|c2cAB2Bc|d2de dBGB|
AGAB cBcd|eaag e2dB|cAAc dBGB|1A2AG A2ed:|2A2AGA2 A/c/d|
eaab aged|eaab aged|egga ged2|e/^f/g fg gedB|
AGAB cBcd|eaage2dB|cAAc dBGB|1A2AG A2 A/c/d:|2A2AGA2ed|
T:Her Long Black Hair Flowing Down Her Back
M:4/4
C:Junior Crehan
K:Am
|:cd|edce d2cA|GEE2 G2cd|edce d2cd|eaaga2gf|
edce d2cA|GEE2 GAcd|edcA dcAG|A2AG A2:|:
cd|egg^f gede|cAAB c3d|eaag a2gf|edce d2cd|
egg^f gede|cAAB c3d|edcA cdAG|A2AG A2:|

